Images/skills-img-15.svg

<svg width="103" height="100" viewBox="0 0 103 100" fill="none" xmlns="http://www.w3.org/2000/svg">
<path d="M94.8556 77.343C89.2524 77.2048 84.9099 77.7594 81.2677 79.2833C80.2171 79.6989 78.536 79.6993 78.3958 81.0155C78.9565 81.5701 79.0264 82.4707 79.5167 83.2327C80.3577 84.618 81.828 86.4892 83.1589 87.4594C84.6296 88.5678 86.1006 89.6762 87.6412 90.6464C90.3729 92.3094 93.4548 93.2792 96.1162 94.9422C97.6576 95.9115 99.1977 97.1595 100.739 98.1987C101.509 98.7525 101.999 99.6536 102.98 100V99.7922C102.49 99.1685 102.35 98.2679 101.86 97.575C101.16 96.8821 100.459 96.2584 99.7584 95.5655C97.7271 92.8636 95.2058 90.5078 92.4741 88.5678C90.2332 87.0434 85.33 84.9649 84.4195 82.4012C84.4195 82.4012 84.3492 82.3321 84.2794 82.263C85.8203 82.1243 87.6412 81.5701 89.1123 81.1541C91.4938 80.5304 93.6649 80.669 96.1162 80.0457C97.2367 79.7684 98.3576 79.422 99.4781 79.0756V78.4522C98.2179 77.2047 97.307 75.5421 95.9761 74.3642C92.4042 71.315 88.4817 68.3362 84.4195 65.8421C82.248 64.4564 79.4464 63.5553 77.1353 62.3778C76.2951 61.9614 74.8939 61.754 74.404 61.0612C73.1429 59.5368 72.4425 57.5278 71.5321 55.726C69.5016 51.9149 67.5397 47.689 65.7887 43.6705C64.5286 40.9682 63.7579 38.2659 62.2169 35.7718C55.0029 23.9932 47.1584 16.8568 35.1115 9.85863C32.5199 8.4038 29.4385 7.78005 26.1465 7.01808C24.396 6.94853 22.6445 6.81031 20.8935 6.74076C19.7731 6.25567 18.6522 4.9395 17.6714 4.31575C13.68 1.82119 3.3836 -3.5826 0.441855 3.55378C-1.44931 8.05738 3.24344 12.4914 4.85425 14.7782C6.04545 16.3717 7.58597 18.1729 8.42653 19.9747C8.9169 21.1517 9.05662 22.3997 9.54699 23.6467C10.6679 26.6946 11.718 30.0902 13.1891 32.9312C13.9598 34.3861 14.8 35.9105 15.7807 37.2266C16.3409 37.9886 17.3212 38.3354 17.5317 39.5825C16.5514 40.9682 16.4811 43.0468 15.9204 44.779C13.3992 52.6082 14.3799 62.3083 17.9517 68.0589C19.0722 69.7906 21.734 73.6022 25.3059 72.1469C28.4577 70.8999 27.7573 66.9505 28.6677 63.4862C28.8782 62.6542 28.738 62.1005 29.1581 61.5463C29.1585 61.6154 29.1581 61.6849 29.1581 61.6849C30.1388 63.6248 31.1191 65.4957 32.0295 67.4355C34.201 70.8303 37.9829 74.3641 41.1347 76.7201C42.8163 77.9667 44.1468 80.1148 46.2479 80.8772V80.669H46.1078C45.6873 80.0453 45.0572 79.7684 44.4969 79.2833C43.2363 78.0362 41.8351 76.5119 40.8548 75.1261C37.9135 71.2458 35.3215 66.9505 33.0103 62.516C31.8898 60.3683 30.9091 58.0124 29.9987 55.8647C29.5782 55.0328 29.5782 53.7861 28.8778 53.3706C27.8272 54.8945 26.2867 56.2112 25.5159 58.082C24.1859 61.0612 24.0453 64.7333 23.5549 68.544C23.275 68.6135 23.4148 68.544 23.2746 68.6826C21.0337 68.128 20.263 65.8421 19.4224 63.9017C17.3212 58.9826 16.971 51.0838 18.7923 45.4027C19.2827 43.9474 21.3839 39.3747 20.5433 37.989C20.1232 36.6724 18.722 35.9104 17.9517 34.8711C17.0413 33.5545 16.0606 31.8919 15.4305 30.4367C13.7494 26.5568 12.9088 22.261 11.088 18.3807C10.2474 16.579 8.77673 14.7087 7.58597 13.046C6.25549 11.1752 4.78438 9.85863 3.73378 7.64138C3.38402 6.87941 2.89321 5.63235 3.45344 4.80083C3.59361 4.24663 3.8735 4.03886 4.43417 3.9002C5.3446 3.13779 7.93615 4.10797 8.84656 4.52351C11.4381 5.56236 13.6092 6.53298 15.7807 7.98781C16.761 8.68067 17.8115 9.99728 19.0722 10.3437H20.5433C22.7846 10.8284 25.3059 10.4824 27.4071 11.1057C31.1195 12.2832 34.4809 14.0158 37.493 15.8866C46.6684 21.6372 54.2322 29.8133 59.3454 39.5825C60.186 41.1756 60.5358 42.6313 61.3065 44.2939C62.7776 47.6891 64.5984 51.1534 66.0691 54.479C67.5397 57.7351 68.9405 61.0612 71.0417 63.7635C72.0927 65.2179 76.2947 65.9803 78.1858 66.7427C79.5866 67.3661 81.7581 67.9207 83.0187 68.6827C85.3998 70.137 87.7813 71.8005 90.0227 73.394C91.1436 74.2251 94.6451 75.9577 94.8556 77.343L94.8556 77.343Z" fill="#00546B"/>
</svg>

<svg xmlns="http://www.w3.org/2000/svg" width="103" height="100" fill="none" xmlns:v="https://vecta.io/nano"><path d="M94.856 77.343c-5.603-.138-9.946.416-13.588 1.94-1.051.416-2.732.416-2.872 1.732.561.555.631 1.455 1.121 2.217.841 1.385 2.311 3.257 3.642 4.227 1.471 1.108 2.942 2.217 4.482 3.187 2.732 1.663 5.814 2.633 8.475 4.296 1.541.969 3.081 2.217 4.623 3.257.77.554 1.26 1.455 2.241 1.801v-.208c-.49-.624-.63-1.524-1.12-2.217-.7-.693-1.401-1.317-2.102-2.01-2.031-2.702-4.553-5.058-7.284-6.998-2.241-1.524-7.144-3.603-8.055-6.167l-.14-.138c1.541-.139 3.362-.693 4.833-1.109 2.381-.624 4.553-.485 7.004-1.108 1.12-.277 2.241-.624 3.362-.97v-.623c-1.26-1.248-2.171-2.91-3.502-4.088-3.572-3.049-7.494-6.028-11.557-8.522-2.171-1.386-4.973-2.287-7.284-3.464-.84-.416-2.241-.624-2.731-1.317-1.261-1.524-1.962-3.533-2.872-5.335-2.031-3.811-3.992-8.037-5.743-12.056-1.26-2.702-2.031-5.405-3.572-7.899-7.214-11.779-15.059-18.915-27.105-25.913-2.592-1.455-5.673-2.079-8.965-2.841l-5.253-.277c-1.12-.485-2.241-1.801-3.222-2.425C13.68 1.821 3.384-3.583.442 3.554c-1.891 4.504 2.802 8.938 4.412 11.224 1.191 1.594 2.732 3.395 3.572 5.196.49 1.177.63 2.425 1.12 3.672 1.121 3.048 2.171 6.444 3.642 9.284.771 1.455 1.611 2.979 2.592 4.295.56.762 1.541 1.109 1.751 2.356-.98 1.386-1.051 3.464-1.611 5.197-2.521 7.829-1.541 17.529 2.031 23.28 1.12 1.732 3.782 5.543 7.354 4.088 3.152-1.247 2.451-5.196 3.362-8.661.21-.832.07-1.386.49-1.94v.139l2.871 5.751c2.172 3.395 5.953 6.929 9.105 9.285 1.682 1.247 3.012 3.395 5.113 4.157v-.208h-.14c-.42-.624-1.051-.901-1.611-1.386-1.261-1.247-2.662-2.771-3.642-4.157-2.941-3.88-5.533-8.176-7.844-12.61-1.12-2.148-2.101-4.504-3.012-6.651-.421-.832-.421-2.079-1.121-2.494-1.051 1.524-2.591 2.841-3.362 4.711-1.33 2.979-1.471 6.651-1.961 10.462-.28.07-.14 0-.28.139-2.241-.555-3.012-2.84-3.852-4.781-2.101-4.919-2.451-12.818-.63-18.499.49-1.455 2.592-6.028 1.751-7.414-.42-1.317-1.821-2.079-2.592-3.118-.91-1.317-1.891-2.979-2.521-4.434-1.681-3.88-2.522-8.176-4.343-12.056-.841-1.802-2.311-3.672-3.502-5.335-1.33-1.871-2.802-3.187-3.852-5.405-.35-.762-.841-2.009-.28-2.841.14-.554.42-.762.981-.901.91-.762 3.502.208 4.412.623 2.592 1.039 4.763 2.009 6.934 3.464.98.693 2.031 2.009 3.291 2.356h1.471c2.241.485 4.763.139 6.864.762 3.712 1.178 7.074 2.91 10.086 4.781 9.175 5.751 16.739 13.927 21.852 23.696.841 1.593 1.19 3.049 1.961 4.711 1.471 3.395 3.292 6.859 4.763 10.185 1.471 3.256 2.871 6.582 4.973 9.285 1.051 1.454 5.253 2.217 7.144 2.979 1.401.623 3.572 1.178 4.833 1.94 2.381 1.454 4.763 3.118 7.004 4.711 1.121.831 4.622 2.564 4.833 3.949h0z" fill="#00546b"/></svg>
